icons-mns/password-open.svg

<svg height="1em" width="auto" viewBox="0 0 105 105" fill="currentColor" xmlns="http://www.w3.org/2000/svg">
<path d="M0.666386 19.6072C4.66704 13.532 10.0971 8.59357 16.4524 5.25026C22.7934 1.8468 29.8336 0.0468556 36.9879 0C44.1562 0.0501747 51.2103 1.84971 57.5686 5.25026C63.9108 8.59498 69.3258 13.5339 73.3094 19.6072C73.7745 20.4767 73.9121 21.4915 73.6959 22.4585C73.4797 23.4254 72.9248 24.2769 72.137 24.8509C71.3492 25.4248 70.3834 25.6811 69.4235 25.5709C68.4636 25.4608 67.5767 24.9918 66.9317 24.2534C63.3513 19.565 58.8114 15.7423 53.6334 13.056C48.45 10.4748 42.7473 9.18544 36.9879 9.2925C31.2176 9.22879 25.5143 10.566 20.3424 13.1954C15.1774 15.8822 10.6524 19.7054 7.08937 24.3928C6.76682 24.8185 6.36544 25.1745 5.90837 25.4401C5.4513 25.7058 4.94757 25.8759 4.42621 25.9407C3.90485 26.0054 3.37616 25.9636 2.87061 25.8176C2.36506 25.6715 1.89264 25.4242 1.48057 25.0898C0.70768 24.4419 0.196475 23.5224 0.0460466 22.5095C-0.104381 21.4965 0.116682 20.4622 0.666386 19.6072Z" />
<path d="M7.08947 19.6532C10.6652 24.3279 15.1872 28.1486 20.3425 30.8506C25.5176 33.4656 31.2212 34.7869 36.988 34.707C42.7548 34.7869 48.4584 33.4656 53.6335 30.8506C58.802 28.1492 63.3389 24.329 66.9318 19.6532C67.5998 18.9947 68.4704 18.5961 69.3936 18.5258C70.3169 18.4556 71.2352 18.7181 71.9904 19.2683C72.7456 19.8184 73.2904 20.6218 73.5312 21.5401C73.7719 22.4583 73.6936 23.4341 73.3095 24.2994C69.3113 30.3477 63.8989 35.2682 57.5687 38.6099C51.2221 42.0589 44.1674 43.9063 36.988 43.9995C29.8337 43.9527 22.7935 42.1527 16.4526 38.7493C10.1091 35.409 4.68171 30.489 0.666489 24.4388C0.282439 23.5735 0.204051 22.5977 0.444819 21.6794C0.685586 20.7612 1.23045 19.9578 1.98562 19.4077C2.7408 18.8575 3.65906 18.595 4.58235 18.6652C5.50564 18.7355 6.37622 19.1341 7.04424 19.7926L7.08947 19.6532Z" />
<path d="M36.988 33.4535C43.1584 33.4535 48.1604 28.3154 48.1604 21.9772C48.1604 15.6391 43.1584 10.501 36.988 10.501C30.8177 10.501 25.8157 15.6391 25.8157 21.9772C25.8157 28.3154 30.8177 33.4535 36.988 33.4535Z" stroke="currentColor" stroke-width="9" stroke-linecap="round" stroke-linejoin="round"/>
</svg>

<svg xmlns="http://www.w3.org/2000/svg" width="auto" height="1em" fill="currentColor" stroke="currentColor" viewBox="0 0 105 105">
    <path d="M.666 19.607C4.667 13.532 10.097 8.594 16.452 5.25A44 44 0 0 1 36.988 0a44.3 44.3 0 0 1 20.58 5.25c6.343 3.345 11.758 8.284 15.741 14.357.466.87.603 1.884.387 2.852a4.05 4.05 0 0 1-1.559 2.392 3.857 3.857 0 0 1-5.205-.598 39.8 39.8 0 0 0-13.299-11.197 35.8 35.8 0 0 0-16.645-3.763 35.84 35.84 0 0 0-16.646 3.902A39.6 39.6 0 0 0 7.09 24.393a4 4 0 0 1-1.18 1.047 3.88 3.88 0 0 1-3.038.377 3.9 3.9 0 0 1-1.39-.727 4.16 4.16 0 0 1-1.435-2.58 4.23 4.23 0 0 1 .62-2.903"/>
    <path d="M7.09 19.653a40.2 40.2 0 0 0 13.253 11.198 35.8 35.8 0 0 0 16.645 3.856 35.8 35.8 0 0 0 16.646-3.856 40.4 40.4 0 0 0 13.298-11.198 3.93 3.93 0 0 1 2.462-1.127 3.9 3.9 0 0 1 2.596.742 4.1 4.1 0 0 1 1.541 2.272c.24.918.163 1.894-.222 2.76-3.998 6.048-9.41 10.968-15.74 14.31A44.3 44.3 0 0 1 36.988 44a44 44 0 0 1-20.535-5.25C10.109 35.408 4.682 30.488.666 24.438a4.2 4.2 0 0 1-.221-2.76 4.1 4.1 0 0 1 1.54-2.271 3.9 3.9 0 0 1 2.597-.743c.924.07 1.794.47 2.462 1.128z"/>
    <path stroke-linecap="round" stroke-linejoin="round" stroke-width="9" d="M36.988 33.454c6.17 0 11.172-5.139 11.172-11.477s-5.002-11.476-11.172-11.476-11.172 5.138-11.172 11.476 5.002 11.476 11.172 11.476"/>
</svg>
